X:1
T:Exaudiat dominus
T:Rodrigo de Ceballos (c. 1525 - c. 1571)
T:Exaudiat dominus
T:in dominicis diebus per annum (i.e. on Sundays throughout the year)
T:Copyright © 
T:Copyright © 
T:Copyright © 
T:Copyright © 
C:Rodrigo de Ceballos (c. 1525 - c. 1571)
Z:Copyright ©
%%score [ 1 2 3 4 ]
L:1/8
M:2/2
K:F
V:1 treble nm="Tiple (Treble)" snm="S."
V:2 treble-8 transpose=-12 nm="Con- tralto" snm="A."
V:3 treble-8 transpose=-12 nm="Tenor" snm="T."
V:4 bass nm="Bajo (bass)" snm="B."
V:1
 D4 F4- | F2 G2 A4 | B6 F2 | G2 A3 F B2- | B2 A4 GF | E2 F2 G3 F | D2 F4 _E2 | D4 z2 G2 | %8
w: Ex- au-|* di- at|do- mi-|nus, ex- * au-||di- at do- *|* * mi-|nus, ex-|
 B2 c2 d4 | _e6 B2 | c4 d3 c | B2 A3 G G2- | G2 ^F2 G4 | z2 A2 G2 G2 | B4 G2 B2- | BA F2 G4 | %16
w: au- di- at|do- mi-|nus, do- *||* mi- nus|o- ra- ti-|o- nes nos-||
 F4 z4 | z2 B2 B2 B2 | c4 d4 | z2 B2 B2 B2 | c2 B4 A2 | B4 z2 d2 | d2 d2 c2 B2 | B2 c4 B2- | %24
w: tras,|o- ra- ti-|o- nes,|o- ra- ti-|o- nes nos-|tras. Et|re- con- ci- li-|e- * tur|
 BA G4 ^F2 | G4 z4 | z8 | z2 G2 G2 G2 | A2 B2 c4 | c2 B3 A G2- | G2 ^F2 G4- | G4 z2 d2 | d4 c4- | %33
w: _ _ no- *|bis,||et re- con-|ci- li- e-|tur no- * *|* * bis,|_ nec|nos de-|
 c2 BA B4 | A8- | A4 z2 A2 | A4 A2 A2 | G6 FE | F4 z4 | z8 | z2 d2 d4 | d2 d2 c4 | B4 z2 B2- | %43
w: * * * se-|rat,|_ nec|nos de- se-||rat||in tem-|po- re ma-|lo do-|
 B2 B2 A4 | G3 F D2 _E2- | E2 C2 D2 d2- | d2 d2 c4 | d6 G2 | B4 A4 | G4 z2 G2- | G2 G2 ^F4 | %51
w: * mi- nus|de- * us nos-|* * ter, do-|* mi- nis|de- us|nos- *|ter, do-|* mi- nus|
 G6 D2 | F4 E4 | D4 z2 d2- | d2 d2 ^c4 | d6 G2 | B4 A4 | G4 G2 A2- | AG G4 ^F2 | G8 |] %60
w: de- us|nos- *|ter, do-|* mi- nus|de- us|nos- ter,|de- us nos-||ter.|
V:2
 z8 | z8 | G4 B4- | B2 c2 d4 | c3 B cA d2- | d2 c2 d4 | z2 d4 g2- | g2 ^f2 g2 _e2- | ed c4 =B2 | %9
w: ||Ex- au-|* di- at|do- * * * *|* mi- nus,|ex- au-|* di- at do-||
 c2 G2 g3 f | _e2 c2 f4- | f2 _ed c4 | d4 z2 d2 | d2 d2 _e4- | e2 d2 B3 c | d4 z2 d2 | d2 d2 (f4 | %17
w: mi- nus, do- *||* * * mi-|nus or-|ra- ti- o-|* nes nos- *|tras, o-|ra- ti- o-|
 g6) f2 | _e4 d2 f2 | f2 f2 g4 | g4 f4 | d4 z2 f2 | f2 f2 _e2 f2 | g4 f2 f2 | f2 d2 _e3 d | %25
w: * nes|nos- tras, o-|ra- ti- o-|nes nos-|tras. Et|re- con- ci- li-|e- tur no-|* bis, no- *|
 cB c3 B AG | F2 G4 ^F2 | G2 d2 d2 d2 | f2 f2 g4 | g4 d4 | d4 z2 B2 | B4 d4- | d2 B2 c4 | %33
w: ||bis, et re- con-|ci- li- e-|tur no-|bis, nec|nos de-|* se- rat,|
 z2 d2 d4 | f4 e4 | f4 z2 f2 | f4 f2 f2 | d4 d4 | z2 d2 f4 | f2 f2 _e4 | d2 g2 g2 g2 | f2 g4 ^f2 | %42
w: nec nos|de- se-|rat in|tem- po- re|ma- lo,|in tem-|po- re ma-|lo, in tem- po-|re ma- *|
 g2 d4 d2 | B4 f4 | d4 z2 g2- | g2 g2 ^f4 | g2 d2 f2 e2 | d2 G2 B3 c | d2 e2 f4 | d6 _e2- | %50
w: lo do- mi-|nus de-|us, de-|* us, de-|us nos- * *||* * ter,|de- us|
 e2 c2 d4 | z2 B4 B2 | A4 c4 | A4 A2 B2- | BAFG A4 | z2 A2 GABc | d2 e2 f4 | d4 d2 _e2 | c4 d4- | %59
w: _ nos- ter,|do- mi-|nus de-|us nos- *|* * * * ter,|do- * * * *|* mi- nus|de- us nos-|* ter.|
 d8 |] %60
w: _|
V:3
 z8 | z8 | z8 | z4 D4 | F6 G2 | A4 B4- | B2 F2 G3 A | B2 A2 G4 | z2 G2 F2 F2 | G2 c3 B B2- | %10
w: |||Ex-|au- di-|at do-|* mi- nus, _|do- mi- nus,|ex- au- di-|at do- * *|
 B2 A2 B2 d2- | d2 c3 B G2 | A4 G4- | G4 z4 | z2 G2 G2 G2 | B4 G2 B2- | B2 AG A2 d2 | %17
w: ||mi- nus|_|or- ra- ti-|o- nes nos-||
 c2 BA G2 B2- | B2 A2 B2 d2 | d2 d2 _e4- | e2 d2 c4 | B4 z2 B2 | B2 B2 c2 d2 | _e4 d2 d2- | %24
w: |* * tras, o-|ra- ti- o-|* nes nos-|tras. Et|re- con- ci- li-|e- tur no-|
 dc B2 A4 | G4 z4 | z8 | z2 B2 B2 B2 | c2 d2 _e4 | c2 d3 c B2 | A4 z2 G2 | G4 B3 A | F2 G4 ^F2 | %33
w: |bis,||et re- con-|ci- li- e-|tur no- * *|bis, nec|nos de- *|se- * *|
 G4 z2 c2 | c2 d4 ^c2 | d2 d2 d4 | d2 d2 c4 | B4 z2 A2 | d4 A2 A2 | F2 B4 A2 | B2 G3 ABc | %41
w: rat, nec|nos de- se-|rat in tem-|po- re ma-|lo, in|tem- po- re,|in tem- po-|re ma- * * *|
 d2 G2 c4 | d4 G4 | z2 d2 d2 c2- | c2 BA B2 c2- | cB G2 A4 | B4 A4 | z2 d4 d2 | B4 z2 c2- | %49
w: |* lo|Do- mi- nus|_ _ _ _ De-|* * us nos-|* ter,|do- mi-|nus, do-|
 c2 B2 B2 c2- | cB G2 A4 | B2 G4 F2 | F4 G4- | G2 FE F2 G2- | GF D2 E4 | D2 d4 d2 | B4 z2 c2- | %57
w: * mi- nus de-|* * us nos-|ter, de- *|us, de-|* * * us nos-||ter, do- mi-|nus, do-|
 c2 B2 B2 c2- | cB G2 A4 | G8 |] %60
w: * mi- nus de-|* * us nos-|ter.|
V:4
 z8 | z8 | z8 | z8 | z8 | z4 G,,4 | B,,6 C,2 | D,4 _E,4- | E,2 _E,2 D,4 | C,4 _E,3 D, | C,4 B,,4- | %11
w: |||||ex-|au- di-|at do-|* mi- nua,|ex- au- di-|at do-|
 B,,2 C,2 _E,4 | D,4 G,,4- | G,,4 z4 | z8 | z8 | D,4 D,2 D,2 | _E,6 D,2 | C,4 B,,2 B,2 | %19
w: |mi- nus|_|||o- ra- ti-|o- nes|nos- tras, or-|
 B,2 B,2 _E,4 | _E,4 F,4 | B,,8 | z8 | z4 z2 B,,2 | B,,2 B,,2 C,2 D,2 | _E,4 C,2 D,2- | %26
w: ra- ti- o-|nes nos-|tras.||Et|re- con- ci- li-|e- tur no-|
 D,C, B,,2 A,,4 | G,,2 G,2 G,2 G,2 | F,2 D,2 C,4- | C,2 G,,2 B,,3 C, | D,4 G,,4 | z2 G,,2 G,,4 | %32
w: |bis, et re- con-|ci- li- e-|* tur no- *|* bis|nec nos|
 B,,4 A,,4 | G,,2 G,2 G,4 | F,2 D,2 A,4 | z2 D,2 D,4 | D,2 D,2 F,4 | G,4 D,4 | z2 D,2 D,4 | %39
w: de- se-|rat, nec nos|de- se- rat|in tem-|po- re ma-|* lo,|in tem-|
 D,2 D,2 C,4 | B,,2 B,2 B,4 | B,2 B,2 A,4 | G,4 z2 G,2- | G,2 G,2 F,4 | G,6 C,2 | _E,4 D,4 | %46
w: po- re ma-|lo, in tem-|po- re ma-|lo do-|* mi- nus|de- us|nos- *|
 G,,4 z4 | z4 G,4- | G,2 G,2 F,4 | G,6 C,2 | _E,4 D,4 | G,,4 z2 D,2- | D,2 D,2 C,4 | D,6 G,,2 | %54
w: ter,|do-|* mi- nus|de- us|nos- *|ter, do-|* mi- nus|de- *|
 B,,4 A,,4 | D,4 z2 G,2- | G,2 G,2 F,4 | G,6 C,2 | _E,4 D,4 | G,,8 |] %60
w: us nos-|ter, do-|* mi- nus|de- us|nos- *|ter.|

